templates/main/source/images/logo-bg.svg

<?xml version="1.0" encoding="utf-8"?>
<svg width="813px" height="160px" viewBox="0 0 813 160" version="1.1" xmlns:xlink="http://www.w3.org/1999/xlink" xmlns="http://www.w3.org/2000/svg">
  <desc>Created with Lunacy</desc>
  <path d="M812.342 3.04017L782.527 3.04017L782.527 15.5917C782.527 15.5917 775.095 0 747.225 0C716.978 0 698.139 26.7101 698.139 56.0261C698.139 87.1227 714.558 111.705 748.219 111.705C773.496 111.705 781.447 98.241 781.447 98.241L781.706 110.271C780.712 126.298 772.416 134.897 756.515 134.897C744.762 134.897 737.373 131.075 735.731 121.868L702.848 123.692C704.015 146.493 729.811 160 753.274 160C806.076 159.913 812.342 131.813 812.342 108.969L812.342 3.04017ZM691.7 70.4017C694.034 36.4821 674.892 0.912052 634.059 0.912052C598.281 0.912052 577.065 30.1846 577.065 62.1064C577.065 94.0282 598.972 122.432 635.182 122.432C661.108 122.432 681.244 111.748 690.145 84.8208L658.17 83.3876C657.349 87.7307 648.966 97.4593 635.787 97.4593C628.576 97.6753 621.592 94.9059 616.47 89.7989C611.349 84.6918 608.537 77.695 608.695 70.4452L691.7 70.4017ZM295.036 84.5603C295.036 111.574 321.782 125.863 347.881 125.863C368.881 125.863 399.214 116.135 399.214 86.1672C399.214 65.0163 385.171 57.1987 365.122 52.291C347.535 47.9479 326.233 48.6428 326.233 37.2204C326.233 27.9696 336.171 24.582 346.023 24.582C357.128 24.582 368.362 29.316 368.362 41.5635L395.973 41.5635C393.597 13.5505 371.128 2.90988 346.542 2.90988C321.955 2.90988 298.147 13.4636 298.147 41.7807C298.147 61.8458 315.431 70.4886 333.319 73.6156C360.412 78.3496 368.838 79.4354 368.838 89.8588C368.838 100.282 353.369 103.713 348.14 103.713C335.955 103.713 323.252 98.241 323.035 84.5603L295.036 84.5603ZM404.054 120.13L435.078 120.13L435.078 54.9837C435.078 35.3094 448.56 30.7492 454.479 30.7492C471.374 30.7492 472.714 44.6037 472.714 57.1553L472.714 120.13L503.738 120.13L503.738 54.9837C503.738 35.266 514.93 30.3583 522.923 30.3583C540.769 30.3583 541.374 44.3865 541.374 57.1987L541.374 120.13L572.398 120.13L572.398 44.6471C572.398 15.114 555.719 3.86536 532.386 3.86536C518.863 4.09263 506.394 11.2519 499.331 22.8447C493.411 9.16395 481.096 3.86536 467.356 3.86536C453.758 3.78282 441.087 10.7835 433.868 22.367L433.436 22.367L433.436 6.90554L404.054 6.90554L404.054 120.13ZM181.337 10.337C163.575 10.323 148.728 22.9261 145.201 39.7346C141.67 23.0063 126.917 10.4357 109.219 10.3802C88.8619 10.3164 72.2988 26.835 72.2034 47.2964C72.1805 57.1564 76.0554 66.6217 82.9756 73.61C88.2314 78.9174 94.9168 82.466 102.126 83.8761C87.5819 86.6742 76.0611 98.057 73.0026 112.589C69.4771 95.84 54.7034 83.2557 36.9872 83.214C16.6243 83.1661 0.0715845 99.7065 5.17622e-05 120.174C-0.0238483 140.689 16.4904 157.346 36.9011 157.394C54.661 157.394 69.4931 144.783 73.0108 127.979C76.5557 144.753 91.3571 157.352 109.104 157.394C127.005 157.394 141.932 144.581 145.296 127.578C148.671 144.574 163.577 157.396 181.481 157.438C201.815 157.342 218.24 140.729 218.208 120.29C218.18 102.168 205.224 87.0943 188.113 83.8874C202.697 81.1545 214.252 69.8052 217.374 55.309C218.866 62.1817 222.281 68.5461 227.296 73.61C234.216 80.5983 243.615 84.5373 253.425 84.5603C273.782 84.56 290.294 67.9894 290.325 47.5278C290.357 27.0662 273.897 10.444 253.539 10.3802C235.833 10.3247 220.997 22.8142 217.371 39.5317C213.772 22.8476 199.006 10.351 181.337 10.337ZM73.0108 127.979C73.5264 125.517 73.7989 122.964 73.8019 120.347C73.805 117.687 73.5293 115.092 73.0026 112.589C72.4875 115.037 72.2125 117.574 72.2034 120.174C72.2003 122.851 72.4788 125.462 73.0108 127.979ZM116.138 83.8871C113.861 84.3289 111.51 84.5602 109.104 84.5603C106.745 84.5547 104.409 84.3227 102.126 83.8761C104.413 83.4361 106.775 83.2083 109.191 83.214C111.566 83.2196 113.889 83.4507 116.138 83.8871L116.138 83.8871ZM145.308 54.6822C144.821 52.2545 144.574 49.7665 144.58 47.253L144.407 47.2964C144.416 44.7043 144.689 42.1751 145.201 39.7346C145.732 42.2479 146.009 44.8551 146.005 47.5278C146.001 49.9755 145.762 52.3676 145.308 54.6822ZM145.308 54.6822C142.416 69.4306 130.828 81.0372 116.138 83.8871C130.674 86.7068 142.165 98.0973 145.211 112.611C148.298 97.9833 159.96 86.5519 174.646 83.8605C167.382 82.4697 160.643 78.9093 155.352 73.5666C150.196 68.3597 146.73 61.7779 145.308 54.6822ZM609.602 48.2519C610.679 35.3117 621.442 25.3601 634.361 25.3601C647.28 25.3601 658.044 35.3117 659.12 48.2519L609.602 48.2519ZM753.749 86.949C737.719 86.949 727.435 71.2704 728.342 55.5917C729.163 40.9989 736.984 25.8415 754.959 25.8415C772.934 25.8415 782.916 40.8252 781.706 58.1976C780.755 72.3127 772.762 86.949 753.749 86.949Z" id="logo-bg" fill="#EDEDED" fill-rule="evenodd" stroke="none" />
</svg>

<svg width="813" height="160" viewBox="0 0 813 160" xmlns:xlink="http://www.w3.org/1999/xlink" xmlns="http://www.w3.org/2000/svg"><path d="M812.342 3.04h-29.815v12.552S775.095 0 747.225 0c-30.247 0-49.086 26.71-49.086 56.026 0 31.097 16.419 55.679 50.08 55.679 25.277 0 33.228-13.464 33.228-13.464l.259 12.03c-.994 16.027-9.29 24.626-25.191 24.626-11.753 0-19.142-3.822-20.784-13.029l-32.883 1.824C704.015 146.493 729.811 160 753.274 160c52.802-.087 59.068-28.187 59.068-51.031V3.04zM691.7 70.402c2.334-33.92-16.808-69.49-57.641-69.49-35.778 0-56.994 29.273-56.994 61.194 0 31.922 21.907 60.326 58.117 60.326 25.926 0 46.062-10.684 54.963-37.611l-31.975-1.433c-.821 4.343-9.204 14.071-22.383 14.071a26.245 26.245 0 01-19.317-7.66 26.52 26.52 0 01-7.775-19.354l83.005-.043zM295.036 84.56c0 27.014 26.746 41.303 52.845 41.303 21 0 51.333-9.728 51.333-39.696 0-21.15-14.043-28.968-34.092-33.876-17.587-4.343-38.889-3.648-38.889-15.07 0-9.251 9.938-12.639 19.79-12.639 11.105 0 22.339 4.734 22.339 16.981h27.611C393.597 13.55 371.128 2.91 346.542 2.91c-24.587 0-48.395 10.554-48.395 38.87 0 20.066 17.284 28.709 35.172 31.836 27.093 4.734 35.519 5.82 35.519 16.243 0 10.423-15.469 13.854-20.698 13.854-12.185 0-24.888-5.472-25.105-19.153h-27.999zm109.018 35.57h31.024V54.984c0-19.675 13.482-24.235 19.401-24.235 16.895 0 18.235 13.855 18.235 26.406v62.975h31.024V54.984c0-19.718 11.192-24.626 19.185-24.626 17.846 0 18.451 14.028 18.451 26.84v62.932h31.024V44.647c0-29.533-16.679-40.782-40.012-40.782-13.523.228-25.992 7.387-33.055 18.98-5.92-13.681-18.235-18.98-31.975-18.98-13.598-.082-26.269 6.918-33.488 18.502h-.432V6.906h-29.382V120.13zM181.337 10.337c-17.762-.014-32.609 12.59-36.136 29.398-3.531-16.729-18.284-29.3-35.982-29.355-20.357-.064-36.92 16.455-37.016 36.916A37.275 37.275 0 0082.976 73.61a36.93 36.93 0 0019.15 10.266c-14.544 2.798-26.065 14.181-29.123 28.713-3.526-16.749-18.3-29.333-36.016-29.375C16.624 83.166.072 99.707 0 120.174c-.024 20.515 16.49 37.172 36.901 37.22 17.76 0 32.592-12.611 36.11-29.415 3.545 16.774 18.346 29.373 36.093 29.415 17.901 0 32.828-12.813 36.192-29.816 3.375 16.996 18.281 29.818 36.185 29.86 20.334-.096 36.759-16.709 36.727-37.148-.028-18.122-12.984-33.196-30.095-36.403 14.584-2.733 26.139-14.082 29.261-28.578a37.228 37.228 0 009.922 18.301 36.893 36.893 0 0026.129 10.95c20.357 0 36.869-16.57 36.9-37.032.032-20.462-16.428-37.084-36.786-37.148-17.706-.055-32.542 12.434-36.168 29.152-3.599-16.684-18.365-29.181-36.034-29.195zM73.011 127.979c.515-2.462.788-5.015.79-7.632a37.43 37.43 0 00-.798-7.758 37.445 37.445 0 00-.8 7.585 37.501 37.501 0 00.808 7.805zm43.127-44.092a36.905 36.905 0 01-7.034.673 36.8 36.8 0 01-6.978-.684 36.907 36.907 0 017.065-.662c2.375.006 4.698.237 6.947.673zm29.17-29.205a37.315 37.315 0 01-.728-7.429l-.173.043a37.43 37.43 0 01.794-7.561c.531 2.513.808 5.12.804 7.793a37.462 37.462 0 01-.697 7.154zm0 0c-2.892 14.749-14.48 26.355-29.17 29.205 14.536 2.82 26.027 14.21 29.073 28.724 3.087-14.628 14.749-26.06 29.435-28.75a36.93 36.93 0 01-19.294-10.294 37.236 37.236 0 01-10.044-18.885zm464.294-6.43c1.077-12.94 11.84-22.892 24.759-22.892s23.683 9.952 24.759 22.892h-49.518zm144.147 38.697c-16.03 0-26.314-15.679-25.407-31.357.821-14.593 8.642-29.75 26.617-29.75s27.957 14.983 26.747 32.356c-.951 14.115-8.944 28.751-27.957 28.751z" id="logo-bg" fill="#EDEDED" fill-rule="evenodd" stroke="none"/></svg>
